polaris-icons/icons/new-icons/ActivitiesMajor.svg

<svg width="20" height="20" viewBox="0 0 20 20" fill="none" xmlns="http://www.w3.org/2000/svg">
<path fill-rule="evenodd" clip-rule="evenodd" d="M2.75915 9.88248C2.75313 9.92077 2.75 9.96002 2.75 10C2.75 10.0204 2.75082 10.0407 2.75242 10.0607C2.75081 10.1236 2.75 10.1867 2.75 10.25C2.75 14.2541 5.99594 17.5 10 17.5C14.0041 17.5 17.25 14.2541 17.25 10.25C17.25 10.1867 17.2492 10.1236 17.2476 10.0607C17.2492 10.0407 17.25 10.0204 17.25 10C17.25 9.96002 17.2469 9.92077 17.2408 9.88248C17.0495 6.04918 13.8808 3 10 3C6.11918 3 2.95054 6.04918 2.75915 9.88248ZM6.27798 5.86703C7.1014 5.16709 8.12458 4.69507 9.25 4.54847V9.25H7.48072C7.36205 8.06323 6.96114 6.89932 6.27798 5.86703ZM5.23416 7.03194C4.7906 7.68755 4.47877 8.43956 4.33665 9.25H5.97131C5.87479 8.47988 5.62907 7.72491 5.23416 7.03194ZM5.97142 10.75H4.27144C4.34902 11.6507 4.63425 12.492 5.07902 13.2259C5.56547 12.4643 5.86293 11.6167 5.97142 10.75ZM6.06338 14.4411C6.92046 15.2465 8.02462 15.7919 9.25 15.9515V10.75H7.48081C7.35034 12.0564 6.87787 13.3351 6.06338 14.4411ZM15.6634 9.25C15.5223 8.44557 15.214 7.69869 14.7757 7.04653C14.3856 7.7355 14.1427 8.48528 14.0468 9.25H15.6634ZM12.5374 9.25C12.6557 8.06702 13.0544 6.90675 13.7336 5.87691C12.9082 5.17154 11.8807 4.69576 10.75 4.54847V9.25H12.5374ZM10.75 10.75H12.5373C12.6674 12.0524 13.1374 13.3274 13.9473 14.4311C13.0887 15.2419 11.9805 15.7912 10.75 15.9515V10.75ZM15.7286 10.75C15.6515 11.6447 15.3695 12.4809 14.9298 13.2113C14.4489 12.4535 14.1545 11.6112 14.0467 10.75H15.7286Z" fill="#4A4A4A"/>
</svg>

<svg viewBox="0 0 20 20" xmlns="http://www.w3.org/2000/svg"><path fill-rule="evenodd" d="M2.76 9.882a.756.756 0 0 0-.008.179 7.25 7.25 0 1 0 14.495 0 .762.762 0 0 0-.006-.179 7.25 7.25 0 0 0-14.482 0Zm3.518-4.015a5.726 5.726 0 0 1 2.972-1.319v4.702h-1.77a7.471 7.471 0 0 0-1.202-3.383Zm-1.044 1.165a5.717 5.717 0 0 0-.897 2.218h1.634a5.98 5.98 0 0 0-.737-2.218Zm.737 3.718h-1.7c.078.9.363 1.742.808 2.476.486-.762.784-1.61.892-2.476Zm.092 3.691a5.73 5.73 0 0 0 3.187 1.51v-5.201h-1.77a7.468 7.468 0 0 1-1.417 3.691Zm9.6-5.191a5.718 5.718 0 0 0-.887-2.203 5.98 5.98 0 0 0-.73 2.203h1.617Zm-3.126 0a7.472 7.472 0 0 1 1.197-3.373 5.726 5.726 0 0 0-2.984-1.329v4.702h1.787Zm-1.787 1.5h1.787c.13 1.302.6 2.577 1.41 3.681a5.731 5.731 0 0 1-3.197 1.52v-5.201Zm4.979 0a5.715 5.715 0 0 1-.8 2.461 5.975 5.975 0 0 1-.882-2.461h1.682Z" fill="#5C5F62"/></svg>
